src/images/desktop/main/pram.svg

<svg width="362" height="517" viewBox="0 0 362 517" fill="none" xmlns="http://www.w3.org/2000/svg">
<path d="M217.997 437.407C215.474 439.253 212.233 439.814 209.237 438.922L67.7014 396.792C63.4612 395.53 60.5543 391.632 60.5543 387.208V358.307C60.5543 356.953 60.8274 355.616 61.3729 354.376C64.0075 348.39 72.4675 329.62 78.8728 320.513C79.9311 319.008 80.6651 317.306 81.225 315.554C83.4818 308.491 90.1788 298.919 94.4608 293.24C96.7158 290.25 100.518 288.941 104.177 289.742L282.934 328.839C287.026 329.734 290.127 333.085 290.702 337.234L295.793 373.945C296.298 377.588 294.763 381.215 291.795 383.388L217.997 437.407Z" fill="#BF252B"/>
<path d="M22.0971 476.365C9.89322 472.904 4.63809 453.786 10.3595 433.664C16.0809 413.542 30.6122 400.037 42.8161 403.498C55.02 406.96 60.2752 426.078 54.5538 446.2C48.8324 466.321 34.3011 479.827 22.0971 476.365Z" fill="#545ED7"/>
<path d="M29.1164 471.313C19.5864 468.61 15.4833 453.679 19.9518 437.964C24.4203 422.248 35.7683 411.7 45.2982 414.403C54.8282 417.106 58.9313 432.037 54.4628 447.753C49.9943 463.468 38.6464 474.016 29.1164 471.313Z" fill="white"/>
<path d="M35.077 455.643C30.4359 454.326 28.4368 447.058 30.6119 439.408C32.787 431.758 38.3127 426.624 42.9538 427.94C47.5949 429.257 49.594 436.525 47.4189 444.175C45.2438 451.825 39.7181 456.959 35.077 455.643Z" fill="#545ED7"/>
<path d="M222.424 297.127C181.613 284.543 141.233 277.625 100.427 265.045C141.292 204.005 167.674 119.688 209.573 42.6222C209.573 42.6222 280.612 44.0554 289.348 155.7C298.085 267.344 291.532 168.089 291.532 168.089L222.424 297.127Z" fill="#B6292F"/>
<path d="M286.35 160.658C272.494 209.923 245.019 252.548 222.204 295.623C228.182 297.439 241.367 300.478 247.349 302.294C247.349 302.294 310.41 180.649 308.416 179.646C306.423 178.642 287.343 164.868 286.35 160.658Z" fill="#E32E36"/>
<path d="M309.956 185.291L354.759 87.8047C354.759 87.8047 362.898 67.8547 348.156 57.7259L318.743 42.6222" stroke="white" stroke-width="9" stroke-miterlimit="10"/>
<path d="M296.995 407.825L282.511 241.26" stroke="white" stroke-width="9" stroke-miterlimit="10"/>
<path d="M281.548 458.058C266.628 453.827 260.204 430.453 267.199 405.852C274.194 381.252 291.959 364.74 306.879 368.972C321.799 373.203 328.223 396.577 321.228 421.178C314.233 445.778 296.468 462.29 281.548 458.058Z" fill="#545ED7"/>
<path d="M290.132 451.882C278.48 448.577 273.463 430.323 278.926 411.11C284.389 391.897 298.264 379.001 309.916 382.306C321.567 385.611 326.585 403.865 321.121 423.078C315.658 442.291 301.784 455.187 290.132 451.882Z" fill="white"/>
<path d="M265.441 274.873C265.441 274.873 271.168 242.896 257.03 236.109C247.976 231.761 134.977 205.229 116.848 201.133C114.492 200.6 112 200.98 109.975 202.336C106.415 204.717 103.148 213.515 124.701 223.779" stroke="white" stroke-width="9" stroke-miterlimit="10"/>
<path d="M298.194 430.003C293.43 428.652 291.378 421.193 293.61 413.344C295.842 405.494 301.513 400.226 306.276 401.577C311.04 402.929 313.092 410.387 310.86 418.237C308.628 426.086 302.957 431.354 298.194 430.003Z" fill="#545ED7"/>
<path d="M145.532 510.277C132.536 506.591 126.94 486.23 133.033 464.801C139.126 443.372 154.601 428.988 167.598 432.674C180.595 436.361 186.191 456.721 180.098 478.151C174.004 499.58 158.529 513.963 145.532 510.277Z" fill="#545ED7"/>
<path d="M153.011 504.898C142.86 502.019 138.49 486.117 143.248 469.381C148.007 452.644 160.094 441.411 170.244 444.29C180.394 447.169 184.765 463.07 180.006 479.807C175.248 496.543 163.161 507.777 153.011 504.898Z" fill="white"/>
<path d="M159.613 487.324C154.969 486.006 152.969 478.73 155.147 471.072C157.324 463.413 162.855 458.273 167.499 459.59C172.144 460.908 174.143 468.184 171.966 475.842C169.788 483.501 164.258 488.641 159.613 487.324Z" fill="#545ED7"/>
<path d="M260.268 72.0979C260.268 72.0979 219.12 60.5242 193.979 95.4863C172.755 123.483 151.386 167.33 151.386 167.33C151.386 167.33 100.678 76.4399 118.03 49.8137C135.385 23.1916 236.99 18.8177 260.268 72.0979Z" fill="#A21C21"/>
<path d="M310.444 184.358L212.995 379.443C212.995 379.443 179.007 447.194 153.263 458.408C127.523 469.623 47.2146 449.528 35.0043 428.503C22.7939 407.479 75.8598 301.058 75.8598 301.058" stroke="white" stroke-width="9" stroke-miterlimit="10"/>
<path d="M267.847 274.911C275.38 278.202 284.721 273.47 288.704 264.352C292.691 255.225 289.817 245.157 282.283 241.866C274.75 238.575 265.417 243.309 261.429 252.436C257.446 261.555 260.321 271.623 267.847 274.911Z" fill="#FFF7CF"/>
<path d="M270.474 268.895C275.267 270.989 281.206 267.98 283.739 262.182C286.276 256.376 284.448 249.974 279.655 247.88C274.87 245.789 268.93 248.798 266.394 254.604C263.861 260.402 265.689 266.804 270.474 268.895Z" fill="#FF7915"/>
<path d="M103.013 261.424C103.013 261.424 39.9042 267.632 63.182 326.085C73.5277 352.064 205.487 383.375 207.322 353.098C209.157 322.821 247.349 302.294 247.349 302.294L103.013 261.424Z" fill="#E32E36"/>
<path d="M301.65 189.532C301.65 189.532 283.44 187.765 285.014 176.341C291.941 126.121 276.178 51.0689 206.295 43.1422C136.413 35.2155 115.464 55.4583 115.464 55.4583C115.464 55.4583 118.03 32.5052 130.346 20.5625C147.416 4.00969 158.135 -1.13686 199.012 0.259531C239.889 1.65592 257.006 6.9017 269.234 14.5963L269.855 14.9858C269.855 14.9858 297.142 7.73041 320.591 38.3722C340.387 64.2448 332.818 102.001 332.818 102.001L301.65 189.532Z" fill="#EE4A51"/>
<path d="M303.913 167.361C303.913 167.361 313.803 111.121 301.778 70.147C289.753 29.173 249.922 6.40236 249.922 6.40236C249.922 6.40236 295.679 6.75089 320.905 38.0259C352.392 77.0614 328.549 133.147 328.549 133.147C328.549 133.147 302.685 194.694 301.778 188.497C300.871 182.3 303.913 167.361 303.913 167.361Z" fill="#E32E36"/>
</svg>

<svg width="362" height="517" fill="none" xmlns="http://www.w3.org/2000/svg"><path d="M217.997 437.407a10.002 10.002 0 01-8.76 1.515l-141.536-42.13a10 10 0 01-7.147-9.584v-28.901c0-1.354.273-2.691.819-3.931 2.634-5.986 11.095-24.756 17.5-33.863 1.058-1.505 1.792-3.207 2.352-4.959 2.257-7.063 8.954-16.635 13.236-22.314 2.255-2.99 6.057-4.299 9.716-3.498l178.757 39.097a10 10 0 017.768 8.395l5.091 36.711a10.001 10.001 0 01-3.998 9.443l-73.798 54.019z" fill="#BF252B"/><path d="M22.097 476.365c-12.204-3.461-17.459-22.579-11.738-42.701 5.722-20.122 20.253-33.627 32.457-30.166 12.204 3.462 17.46 22.58 11.738 42.702-5.722 20.121-20.253 33.627-32.457 30.165z" fill="#545ED7"/><path d="M29.116 471.313c-9.53-2.703-13.633-17.634-9.164-33.349 4.468-15.716 15.816-26.264 25.346-23.561 9.53 2.703 13.633 17.634 9.165 33.35-4.469 15.715-15.817 26.263-25.347 23.56z" fill="#fff"/><path d="M35.077 455.643c-4.641-1.317-6.64-8.585-4.465-16.235 2.175-7.65 7.7-12.784 12.342-11.468 4.64 1.317 6.64 8.585 4.465 16.235-2.175 7.65-7.7 12.784-12.342 11.468z" fill="#545ED7"/><path d="M222.424 297.127c-40.811-12.584-81.191-19.502-121.997-32.082 40.865-61.04 67.247-145.357 109.146-222.423 0 0 71.039 1.433 79.775 113.078 8.737 111.644 2.184 12.389 2.184 12.389l-69.108 129.038z" fill="#B6292F"/><path d="M286.35 160.658c-13.856 49.265-41.331 91.89-64.146 134.965 5.978 1.816 19.163 4.855 25.145 6.671 0 0 63.061-121.645 61.067-122.648-1.993-1.004-21.073-14.778-22.066-18.988z" fill="#E32E36"/><path d="M309.956 185.291l44.803-97.486s8.139-19.95-6.603-30.08l-29.413-15.103M296.995 407.825L282.511 241.26" stroke="#fff" stroke-width="9" stroke-miterlimit="10"/><path d="M281.548 458.058c-14.92-4.231-21.344-27.605-14.349-52.206 6.995-24.6 24.76-41.112 39.68-36.88 14.92 4.231 21.344 27.605 14.349 52.206-6.995 24.6-24.76 41.112-39.68 36.88z" fill="#545ED7"/><path d="M290.132 451.882c-11.652-3.305-16.669-21.559-11.206-40.772 5.463-19.213 19.338-32.109 30.99-28.804 11.651 3.305 16.669 21.559 11.205 40.772-5.463 19.213-19.337 32.109-30.989 28.804z" fill="#fff"/><path d="M265.441 274.873s5.727-31.977-8.411-38.764c-9.054-4.348-122.053-30.88-140.182-34.976-2.356-.533-4.848-.153-6.873 1.203-3.56 2.381-6.827 11.179 14.726 21.443" stroke="#fff" stroke-width="9" stroke-miterlimit="10"/><path d="M298.194 430.003c-4.764-1.351-6.816-8.81-4.584-16.659 2.232-7.85 7.903-13.118 12.666-11.767 4.764 1.352 6.816 8.81 4.584 16.66-2.232 7.849-7.903 13.117-12.666 11.766zM145.532 510.277c-12.996-3.686-18.592-24.047-12.499-45.476 6.093-21.429 21.568-35.813 34.565-32.127 12.997 3.687 18.593 24.047 12.5 45.477-6.094 21.429-21.569 35.812-34.566 32.126z" fill="#545ED7"/><path d="M153.011 504.898c-10.151-2.879-14.521-18.781-9.763-35.517 4.759-16.737 16.846-27.97 26.996-25.091 10.15 2.879 14.521 18.78 9.762 35.517-4.758 16.736-16.845 27.97-26.995 25.091z" fill="#fff"/><path d="M159.613 487.324c-4.644-1.318-6.644-8.594-4.466-16.252 2.177-7.659 7.708-12.799 12.352-11.482 4.645 1.318 6.644 8.594 4.467 16.252-2.178 7.659-7.708 12.799-12.353 11.482z" fill="#545ED7"/><path d="M260.268 72.098s-41.148-11.574-66.289 23.388c-21.224 27.997-42.593 71.844-42.593 71.844S100.678 76.44 118.03 49.814c17.355-26.622 118.96-30.996 142.238 22.284z" fill="#A21C21"/><path d="M310.444 184.358l-97.449 195.085s-33.988 67.751-59.732 78.965c-25.74 11.215-106.048-8.88-118.259-29.905-12.21-21.024 40.856-127.445 40.856-127.445" stroke="#fff" stroke-width="9" stroke-miterlimit="10"/><path d="M267.847 274.911c7.533 3.291 16.874-1.441 20.857-10.559 3.987-9.127 1.113-19.195-6.421-22.486-7.533-3.291-16.866 1.443-20.854 10.57-3.983 9.119-1.108 19.187 6.418 22.475z" fill="#FFF7CF"/><path d="M270.474 268.895c4.793 2.094 10.732-.915 13.265-6.713 2.537-5.806.709-12.208-4.084-14.302-4.785-2.091-10.725.918-13.261 6.724-2.533 5.798-.705 12.2 4.08 14.291z" fill="#FF7915"/><path d="M103.013 261.424s-63.109 6.208-39.831 64.661c10.346 25.979 142.305 57.29 144.14 27.013 1.835-30.277 40.027-50.804 40.027-50.804l-144.336-40.87z" fill="#E32E36"/><path d="M301.65 189.532s-18.21-1.767-16.636-13.191c6.927-50.22-8.836-125.272-78.719-133.199-69.882-7.927-90.831 12.316-90.831 12.316s2.566-22.953 14.882-34.895C147.416 4.01 158.135-1.137 199.012.26c40.877 1.396 57.994 6.642 70.222 14.336l.621.39s27.287-7.256 50.736 23.386c19.796 25.873 12.227 63.629 12.227 63.629l-31.168 87.531z" fill="#EE4A51"/><path d="M303.913 167.361s9.89-56.24-2.135-97.214-51.856-63.745-51.856-63.745 45.757.349 70.983 31.624c31.487 39.035 7.644 95.121 7.644 95.121s-25.864 61.547-26.771 55.35c-.907-6.197 2.135-21.136 2.135-21.136z" fill="#E32E36"/></svg>
